icon-svg/nanoleaf.svg

<?xml version="1.0" encoding="UTF-8"?>
<svg width="24px" fill="#44739e" height="24px" viewBox="0 0 32 32" version="1.1" xmlns="http://www.w3.org/2000/svg" xmlns:xlink="http://www.w3.org/1999/xlink">
            <path d="m 19.718353,1.625725 -7.466883,12.933222 0.55715,0.964232 v 5.91e-4 l -0.548287,0.94887 5.89e-4,5.9e-4 H 11.163755 L 3.6968715,29.406454 4.2540222,30.371275 H 19.171246 l 0.55715,-0.964821 -5.89e-4,-5.92e-4 h 1.11371 l 7.458611,-12.919044 -0.55715,-0.964821 h -0.01595 l 0.555963,-0.96305 -7.466885,-12.933222 z m 0.06676,1.0989399 h 0.964233 L 27.3093,14.086876 26.820094,14.934714 H 13.71436 l -0.489207,-0.847838 z m 0.03722,0.5701489 -6.05776,10.4925132 0.451984,0.782847 h 12.10193 L 26.771069,13.787327 20.712718,3.2948138 Z M 13.727361,16.129368 h 13.119925 l 0.489798,0.847839 -6.552874,11.349804 -0.979003,-5.91e-4 -6.559962,-11.362211 z m 12.591134,0.316093 -12.115517,5.92e-4 -0.445485,0.77103 6.057758,10.492513 h 0.903968 l 6.051259,-10.480697 z m -15.087971,1.126708 h 0.96423 l 6.559962,11.362213 -0.489205,0.847839 H 5.1597614 L 4.6705559,28.934382 Z m 0.03722,0.570151 -6.0577595,10.492512 0.4519833,0.782848 H 17.763894 L 18.216469,28.634832 12.158118,18.14232 Z"/>

</svg>

<svg xmlns="http://www.w3.org/2000/svg" fill="#44739e" viewBox="0 0 24 24"><path d="m19.7184 1.6257-7.467 12.9332.5572.9643v.0006l-.5483.9488.0006.0006h-1.0971l-7.467 12.9333.5572.9648h14.9172l.5572-.9648-.0006-.0006h1.1137l7.4586-12.919-.5571-.9649h-.016l.556-.963-7.467-12.9334zm.0667 1.099h.9642l6.56 11.3622-.4892.8478H13.7144l-.4892-.8478zm.0372.5701-6.0577 10.4925.452.7829h12.1019l.4526-.7829-6.0584-10.4925Zm-6.095 12.8346h13.12l.4898.8478-6.5529 11.3498-.979-.0006-6.56-11.3622zm12.5912.316-12.1155.0007-.4455.771 6.0578 10.4925h.904l6.0512-10.4807zm-15.088 1.1268h.9643l6.56 11.3622-.4893.8478H5.1598l-.4892-.8478Zm.0372.5701L5.21 28.6348l.452.7829h12.1019l.4526-.7829-6.0584-10.4925Z"/></svg>
